img/vk.svg

<svg width="18" height="18" viewBox="0 0 18 18" fill="none" xmlns="http://www.w3.org/2000/svg">
<path d="M2 0C1.46957 0 0.960859 0.210714 0.585786 0.585786C0.210714 0.960859 0 1.46957 0 2V16C0 16.5304 0.210714 17.0391 0.585786 17.4142C0.960859 17.7893 1.46957 18 2 18H16C16.5304 18 17.0391 17.7893 17.4142 17.4142C17.7893 17.0391 18 16.5304 18 16V2C18 1.46957 17.7893 0.960859 17.4142 0.585786C17.0391 0.210714 16.5304 0 16 0H2ZM2.5 5.5H4C4.36 5.5 4.5 5.66 4.64 6.07C5.36 8.17 6.57 10 7.07 10C7.26 10 7.35 9.92 7.35 9.45V7.28C7.29 6.28 6.76 6.19 6.76 5.84C6.76 5.67 6.9 5.5 7.14 5.5H9.45C9.77 5.5 9.87 5.67 9.87 6.04V8.96C9.87 9.27 10 9.38 10.1 9.38C10.29 9.38 10.45 9.27 10.79 8.93C11.85 7.74 12.6 5.92 12.6 5.92C12.7 5.7 12.87 5.5 13.24 5.5H14.71C15.16 5.5 15.26 5.73 15.16 6.04C14.97 6.9 13.18 9.43 13.18 9.43C13 9.68 12.96 9.8 13.18 10.09C13.33 10.3 13.85 10.74 14.19 11.15C14.83 11.86 15.3 12.46 15.44 12.87C15.56 13.29 15.35 13.5 14.93 13.5H13.45C12.89 13.5 12.73 13.05 11.73 12.05C10.85 11.21 10.5 11.1 10.26 11.1C9.96 11.1 9.87 11.18 9.87 11.61V12.93C9.87 13.29 9.76 13.5 8.82 13.5C7.26 13.5 5.54 12.55 4.33 10.8C2.5 8.24 2 6.31 2 5.92C2 5.7 2.08 5.5 2.5 5.5Z" fill="#333333"/>
</svg>

<svg width="18" height="18" fill="none" xmlns="http://www.w3.org/2000/svg"><path d="M2 0a2 2 0 00-2 2v14a2 2 0 002 2h14a2 2 0 002-2V2a2 2 0 00-2-2H2zm.5 5.5H4c.36 0 .5.16.64.57C5.36 8.17 6.57 10 7.07 10c.19 0 .28-.08.28-.55V7.28c-.06-1-.59-1.09-.59-1.44 0-.17.14-.34.38-.34h2.31c.32 0 .42.17.42.54v2.92c0 .31.13.42.23.42.19 0 .35-.11.69-.45 1.06-1.19 1.81-3.01 1.81-3.01.1-.22.27-.42.64-.42h1.47c.45 0 .55.23.45.54-.19.86-1.98 3.39-1.98 3.39-.18.25-.22.37 0 .66.15.21.67.65 1.01 1.06.64.71 1.11 1.31 1.25 1.72.12.42-.09.63-.51.63h-1.48c-.56 0-.72-.45-1.72-1.45-.88-.84-1.23-.95-1.47-.95-.3 0-.39.08-.39.51v1.32c0 .36-.11.57-1.05.57-1.56 0-3.28-.95-4.49-2.7C2.5 8.24 2 6.31 2 5.92c0-.22.08-.42.5-.42z" fill="#333"/></svg>
